X:12
T:Sayes Court
C:Chris Walshaw
R:waltz
M:3/4
L:1/4
K:D
dcA|cBG|BAE|EFD|dcA|cBG|BAE|F3:|
E>FG|Bec|dAB|EFD|E>FG|Bec|1 dAB|F3:|2 dAc|d3|]

